components/Common/Svg/svgs/goal.svg

<svg width="40" height="40" viewBox="0 0 40 40" fill="none" xmlns="http://www.w3.org/2000/svg">
<path d="M37.3877 16.1448L36.6448 15.5L37.3877 14.8552C38.0865 14.2487 37.6576 13.1 36.7322 13.1H32.0357C31.8049 13.1 31.5811 13.1799 31.4025 13.326L30.6787 13.9182H17.1C16.5477 13.9182 16.1 14.3659 16.1 14.9182V15.8091C16.1 16.3614 16.5477 16.8091 17.1 16.8091H30.4225L30.6551 17.3167C30.818 17.6721 31.1732 17.9 31.5642 17.9H36.7322C37.6576 17.9 38.0865 16.7513 37.3877 16.1448Z" stroke="#161616" stroke-width="1.8"/>
<path fill-rule="evenodd" clip-rule="evenodd" d="M5.60713 14.4716C5.60713 8.53818 10.476 3.71046 16.504 3.71046C21.7272 3.71046 26.084 7.33772 27.1506 12.1669C27.2578 12.6522 27.7382 12.9588 28.2235 12.8516C28.7089 12.7444 29.0154 12.264 28.9082 11.7787C27.6604 6.12888 22.5759 1.91046 16.504 1.91046C9.50157 1.91046 3.80713 7.52448 3.80713 14.4716C3.80713 19.0987 6.33323 23.1343 10.0894 25.3138L10.0894 35.9968C10.0894 36.4939 10.4924 36.8968 10.9894 36.8968C11.4865 36.8968 11.8894 36.4939 11.8894 35.9968V32.4118H20.8506C20.8516 32.4118 20.8526 32.4118 20.8536 32.4118V35.9968C20.8536 36.4939 21.2565 36.8968 21.7536 36.8968C22.2506 36.8968 22.6536 36.4939 22.6536 35.9968L22.6536 25.4636C24.8936 24.2345 26.7189 22.3545 27.8676 20.0807C28.0918 19.637 27.9138 19.0957 27.4702 18.8715C27.0265 18.6474 26.4852 18.8253 26.261 19.269C24.4758 22.8026 20.7791 25.2328 16.504 25.2328C10.476 25.2328 5.60713 20.405 5.60713 14.4716ZM20.8536 30.6118V26.2762C19.4966 26.7658 18.0316 27.0328 16.504 27.0328C14.8768 27.0328 13.3203 26.7296 11.8894 26.177V30.6118H20.8506C20.8516 30.6118 20.8526 30.6118 20.8536 30.6118Z" fill="#161616"/>
</svg>

<svg width="40" height="40" viewBox="0 0 40 40" fill="none" xmlns="http://www.w3.org/2000/svg"><path d="m37.388 16.145-.743-.645.743-.645c.699-.606.27-1.755-.656-1.755h-4.696a1 1 0 0 0-.634.226l-.723.592H17.1a1 1 0 0 0-1 1v.891a1 1 0 0 0 1 1h13.322l.233.508a1 1 0 0 0 .91.583h5.167c.926 0 1.355-1.149.656-1.755Z" stroke="#161616" stroke-width="1.8"/><path fill-rule="evenodd" clip-rule="evenodd" d="M5.607 14.472c0-5.934 4.869-10.762 10.897-10.762 5.223 0 9.58 3.628 10.647 8.457a.9.9 0 0 0 1.757-.388C27.66 6.129 22.576 1.91 16.504 1.91c-7.002 0-12.697 5.614-12.697 12.562 0 4.627 2.526 8.662 6.282 10.842v10.683a.9.9 0 0 0 1.8 0v-3.585h8.965v3.585a.9.9 0 1 0 1.8 0V25.464a12.675 12.675 0 0 0 5.214-5.383.9.9 0 1 0-1.607-.812 10.91 10.91 0 0 1-9.757 5.964c-6.028 0-10.897-4.828-10.897-10.761Zm15.247 16.14v-4.336c-1.357.49-2.822.757-4.35.757-1.627 0-3.184-.303-4.615-.856v4.435h8.965Z" fill="#161616"/></svg>
